codequest/cutting-room/codequest-grade.cube
TITLE "Code Quest House Grade v1"
LUT_3D_SIZE 9
0.001582 0.029645 0.041643
0.092175 0.027413 0.038812
0.211507 0.024616 0.035419
0.361302 0.021218 0.031428
0.530530 0.017439 0.027058
0.700528 0.013644 0.022676
0.852335 0.010209 0.018655
0.974118 0.007366 0.015230
1.000000 0.005102 0.012386
0.000000 0.120477 0.031638
0.090736 0.118083 0.028807
0.211568 0.115116 0.025405
0.362605 0.111555 0.021411
0.532325 0.107626 0.017051
0.701877 0.103702 0.012698
0.852478 0.100152 0.008722
0.972779 0.097200 0.005346
1.000000 0.094821 0.002544
0.000000 0.238824 0.019756
0.087451 0.236245 0.016925
0.209786 0.233086 0.013516
0.362042 0.229338 0.009519
0.532212 0.225237 0.005173
0.701279 0.221159 0.000852
0.850649 0.217471 0.000000
0.969472 0.214385 0.000000
1.000000 0.211863 0.000000
0.000000 0.382769 0.006129
0.082449 0.380047 0.003294
0.206286 0.376737 0.000000
0.359729 0.372844 0.000000
0.530305 0.368614 0.000000
0.698842 0.364425 0.000000
0.846954 0.360638 0.000000
0.964300 0.357459 0.000000
1.000000 0.355713 0.000000
0.000000 0.540578 0.000000
0.076544 0.537799 0.000000
0.201875 0.534426 0.000000
0.356472 0.530476 0.000000
0.526538 0.526538 0.000000
0.692275 0.523272 0.000000
0.837714 0.520406 0.000000
0.953144 0.518131 0.000000
1.000000 0.517672 0.000000
0.000000 0.695454 0.000000
0.069762 0.693339 0.000000
0.194230 0.690886 0.000000
0.347015 0.687874 0.000000
0.515902 0.684618 0.000000
0.683317 0.682141 0.000000
0.828165 0.680476 0.000000
0.941069 0.679686 0.000000
1.000000 0.679661 0.000000
0.000000 0.833872 0.000000
0.062534 0.831741 0.000000
0.191643 0.828998 0.000000
0.348018 0.826128 0.000000
0.518109 0.823450 0.000000
0.682703 0.821290 0.000000
0.824423 0.819852 0.000000
0.934588 0.819143 0.000000
1.000000 0.819076 0.000000
0.000000 0.940801 0.000000
0.073620 0.938317 0.000000
0.202540 0.935699 0.000000
0.357831 0.933098 0.000000
0.525761 0.930775 0.000000
0.687363 0.928962 0.000000
0.825829 0.927773 0.000000
0.933159 0.927168 0.000000
1.000000 0.927051 0.000000
0.000000 1.000000 0.000000
0.089340 1.000000 0.000000
0.217869 1.000000 0.000000
0.371858 1.000000 0.000000
0.537421 1.000000 0.000000
0.695858 1.000000 0.000000
0.830933 1.000000 0.000000
0.935321 1.000000 0.003927
1.000000 1.000000 0.009294
0.001298 0.028812 0.143290
0.092003 0.026580 0.140115
0.211487 0.023782 0.136378
0.361410 0.020385 0.132045
0.530691 0.016606 0.127335
0.700647 0.012815 0.122617
0.852335 0.009385 0.118263
0.973969 0.006547 0.114506
1.000000 0.004288 0.111332
0.000000 0.119603 0.132142
0.090581 0.117210 0.128971
0.211566 0.114243 0.125229
0.362728 0.110681 0.120898
0.532496 0.106755 0.116204
0.702003 0.102834 0.111520
0.852482 0.099289 0.107216
0.972634 0.096342 0.103514
1.000000 0.093968 0.100387
0.000000 0.237902 0.119133
0.087314 0.235324 0.115967
0.209803 0.232164 0.112223
0.362180 0.228416 0.107895
0.532395 0.224317 0.103219
0.701412 0.220243 0.098572
0.850657 0.216559 0.094319
0.969332 0.213479 0.090674
1.000000 0.210962 0.087595
0.000000 0.381814 0.104395
0.082329 0.379092 0.101230
0.206319 0.375781 0.097481
0.359882 0.371888 0.093153
0.530497 0.367660 0.088495
0.698980 0.363474 0.083882
0.846965 0.359692 0.079678
0.963681 0.356811 0.076515
1.000000 0.355076 0.074780
0.000000 0.539619 0.088743
0.076439 0.536840 0.085572
0.201923 0.533466 0.081812
0.356637 0.529515 0.077480
0.525901 0.525901 0.073749
0.691638 0.522635 0.070483
0.837077 0.519768 0.067616
0.952401 0.517651 0.065512
1.000000 0.517656 0.065667
0.000000 0.694572 0.073417
0.069125 0.692701 0.071546
0.193593 0.690248 0.069093
0.346378 0.687237 0.066082
0.516249 0.684182 0.063634
0.683358 0.681831 0.062620
0.827866 0.680281 0.062448
0.940469 0.679593 0.063177
1.000000 0.679658 0.064701
0.000000 0.833235 0.063774
0.063615 0.830961 0.063542
0.192699 0.828320 0.063401
0.348960 0.825566 0.063187
0.518826 0.823013 0.063210
0.683110 0.820977 0.063790
0.824492 0.819653 0.065118
0.934359 0.819043 0.067199
1.000000 0.819060 0.069944
0.000000 0.939939 0.063923
0.075039 0.937544 0.065094
0.203927 0.935028 0.066180
0.359094 0.932544 0.067331
0.526792 0.930345 0.068802
0.688081 0.928655 0.070817
0.826210 0.927578 0.073478
0.933247 0.927070 0.076742
1.000000 0.927032 0.080510
0.000000 1.000000 0.069526
0.091044 1.000000 0.071652
0.219532 1.000000 0.073830
0.373388 1.000000 0.076206
0.538710 1.000000 0.078969
0.696829 1.000000 0.082250
0.831566 1.000000 0.086065
0.935664 1.000000 0.090327
0.999861 0.999861 0.094900
0.000815 0.027778 0.275344
0.091630 0.025547 0.271795
0.211268 0.022748 0.267681
0.361318 0.019351 0.262973
0.530652 0.015574 0.257888
0.700566 0.011787 0.252796
0.852134 0.008361 0.248070
0.973620 0.005529 0.243941
1.000000 0.003275 0.240393
0.000000 0.118530 0.262945
0.090227 0.116137 0.259397
0.211365 0.113169 0.255278
0.362653 0.109609 0.250569
0.532469 0.105684 0.245499
0.701929 0.101767 0.240439
0.852286 0.098227 0.235761
0.972290 0.095286 0.231685
1.000000 0.092916 0.228183
0.000000 0.236782 0.248679
0.086979 0.234204 0.245135
0.209621 0.231044 0.241011
0.362121 0.227296 0.236304
0.532379 0.223199 0.231251
0.701346 0.219129 0.226227
0.850467 0.215451 0.221599
0.968994 0.212376 0.217578
1.000000 0.209864 0.214123
0.000000 0.380661 0.232678
0.082012 0.377939 0.229133
0.206155 0.374628 0.225003
0.359837 0.370736 0.220295
0.530493 0.366509 0.215257
0.698921 0.362327 0.210267
0.846779 0.358550 0.205687
0.962846 0.355976 0.202846
1.000000 0.354241 0.201111
0.000000 0.538463 0.215755
0.076138 0.535684 0.212204
0.201774 0.532309 0.208062
0.356531 0.528388 0.203401
0.525066 0.525066 0.200080
0.690803 0.521800 0.196813
0.836242 0.518934 0.193947
0.951232 0.517379 0.191915
1.000000 0.517493 0.190975
0.000000 0.693737 0.199748
0.068290 0.691867 0.197877
0.192758 0.689414 0.195424
0.345543 0.686403 0.192413
0.516440 0.683592 0.189677
0.683256 0.681380 0.187599
0.827440 0.679960 0.186359
0.939755 0.679387 0.186010
1.000000 0.679555 0.186448
0.000000 0.832308 0.190219
0.064547 0.830032 0.189198
0.193619 0.827507 0.187971
0.349778 0.824883 0.186689
0.519434 0.822469 0.185659
0.683422 0.820571 0.185189
0.824479 0.819374 0.185463
0.934063 0.818877 0.186479
1.000000 0.818991 0.188149
0.000000 0.938961 0.187027
0.076356 0.936668 0.187109
0.205224 0.934269 0.187124
0.360281 0.931916 0.187225
0.527761 0.929855 0.187658
0.688750 0.928301 0.188637
0.826555 0.927350 0.190258
0.933313 0.926951 0.192471
1.000000 0.927006 0.195176
0.000000 1.000000 0.188978
0.092691 1.000000 0.190030
0.221150 1.000000 0.191153
0.374885 1.000000 0.192492
0.539981 1.000000 0.194231
0.697795 1.000000 0.196491
0.832208 1.000000 0.199279
0.936029 1.000000 0.202502
0.999741 0.999741 0.206022
0.000157 0.026569 0.433772
0.091084 0.024338 0.429968
0.210873 0.021539 0.425598
0.361050 0.018141 0.420630
0.530435 0.014365 0.415286
0.700306 0.010580 0.409934
0.851754 0.007159 0.404948
0.973091 0.004332 0.400557
1.000000 0.002082 0.396744
0.000000 0.117279 0.420519
0.089696 0.114886 0.416710
0.210987 0.111918 0.412327
0.362398 0.108357 0.407352
0.532262 0.104433 0.402015
0.701675 0.100519 0.396689
0.851908 0.096984 0.391743
0.971764 0.094048 0.387398
1.000000 0.091683 0.383624
0.000000 0.235482 0.405377
0.086464 0.232904 0.401564
0.209258 0.229743 0.397169
0.361880 0.225995 0.392189
0.532182 0.221899 0.386862
0.701097 0.217832 0.381565
0.850092 0.214158 0.376662
0.968471 0.211089 0.372366
1.000000 0.208581 0.368632
0.000000 0.379326 0.388474
0.081513 0.376603 0.384654
0.205808 0.373292 0.380245
0.359610 0.369399 0.375258
0.530304 0.365174 0.369940
0.698676 0.360995 0.364670
0.846394 0.357229 0.359822
0.961824 0.354954 0.357547
1.000000 0.353219 0.355812
0.000000 0.537123 0.370625
0.075653 0.534343 0.366791
0.201442 0.530967 0.362363
0.355509 0.527366 0.358102
0.524044 0.524044 0.354781
0.689781 0.520778 0.351514
0.835220 0.517912 0.348648
0.949925 0.516971 0.345852
1.000000 0.517206 0.343748
0.000000 0.692715 0.354449
0.067268 0.690845 0.352578
0.191736 0.688392 0.350125
0.345062 0.685449 0.347007
0.516497 0.682870 0.343230
0.683033 0.680809 0.340019
0.826904 0.679532 0.337639
0.938946 0.679086 0.336136
1.000000 0.679370 0.335410
0.000000 0.831137 0.344532
0.065351 0.828975 0.342339
0.194424 0.826579 0.339956
0.350493 0.824098 0.337534
0.519950 0.821835 0.335374
0.683654 0.820088 0.333775
0.824401 0.819031 0.332912
0.933714 0.818659 0.332778
1.000000 0.818884 0.333285
0.000000 0.937885 0.337445
0.077586 0.935707 0.336360
0.206448 0.933438 0.335226
0.361407 0.931228 0.334192
0.528681 0.929318 0.333501
0.689383 0.927913 0.333356
0.826878 0.927100 0.333844
0.933370 0.926825 0.334911
1.000000 0.926985 0.336455
0.000000 1.000000 0.335472
0.094295 1.000000 0.335362
0.222738 1.000000 0.335339
0.376365 1.000000 0.335550
0.541246 1.000000 0.336169
0.698769 1.000000 0.337307
0.832871 1.000000 0.338966
0.936429 1.000000 0.341047
0.999671 0.999671 0.343406
0.000000 0.025281 0.604304
0.090456 0.023048 0.600462
0.210397 0.020246 0.596048
0.360699 0.016846 0.591036
0.530133 0.013070 0.585645
0.699959 0.009287 0.580246
0.851285 0.005869 0.575211
0.972472 0.003045 0.570768
1.000000 0.000798 0.566901
0.000000 0.115944 0.590920
0.089080 0.113550 0.587062
0.210521 0.110579 0.582626
0.362055 0.107016 0.577596
0.531964 0.103092 0.572203
0.701328 0.099180 0.566820
0.851437 0.095648 0.561816
0.971143 0.092716 0.557410
1.000000 0.090353 0.553572
0.000000 0.234093 0.575613
0.085860 0.231513 0.571741
0.208805 0.228350 0.567285
0.361546 0.224600 0.562240
0.531889 0.220505 0.556848
0.700751 0.216439 0.551484
0.849619 0.212768 0.546513
0.967849 0.209703 0.542146
1.000000 0.207198 0.538338
0.000000 0.377897 0.558512
0.080919 0.375173 0.554624
0.205366 0.371858 0.550144
0.359284 0.367964 0.545083
0.530015 0.363739 0.539689
0.698330 0.359561 0.534343
0.845269 0.356104 0.530121
0.960699 0.353829 0.527846
1.000000 0.352094 0.526111
0.000000 0.535683 0.540431
0.075068 0.532901 0.536519
0.201008 0.529523 0.532011
0.354384 0.526241 0.528401
0.522919 0.522919 0.525080
0.688656 0.519653 0.521813
0.834116 0.516979 0.518715
0.948570 0.516516 0.514698
1.000000 0.516878 0.511551
0.000000 0.691590 0.524747
0.066143 0.689719 0.522877
0.190611 0.687266 0.520424
0.345260 0.684525 0.516524
0.516508 0.682103 0.511737
0.682770 0.680200 0.507514
0.826335 0.679072 0.504110
0.938109 0.678760 0.501568
1.000000 0.679165 0.499788
0.000000 0.829917 0.513718
0.066113 0.827876 0.510477
0.195191 0.825614 0.507058
0.351177 0.823283 0.503612
0.520441 0.821177 0.500435
0.683868 0.819587 0.497816
0.824310 0.818678 0.495921
0.933362 0.818438 0.494739
1.000000 0.818780 0.494181
0.000000 0.936781 0.503138
0.078795 0.934725 0.500998
0.207656 0.932592 0.498821
0.362523 0.930532 0.496758
0.529598 0.928781 0.495042
0.690021 0.927533 0.493869
0.827213 0.926866 0.493318
0.933448 0.926721 0.493329
1.000000 0.926994 0.493797
0.000000 1.000000 0.497599
0.095900 1.000000 0.496426
0.224334 1.000000 0.495355
0.377859 1.000000 0.494528
0.542534 1.000000 0.494115
0.699773 1.000000 0.494218
0.833573 1.000000 0.494828
0.936877 0.999888 0.495844
0.999661 0.999661 0.497116
0.000000 0.024037 0.768166
0.089872 0.021801 0.764513
0.209962 0.018995 0.760286
0.360387 0.015591 0.755458
0.529869 0.011813 0.750251
0.699648 0.008030 0.745034
0.850850 0.004613 0.740181
0.971885 0.001792 0.735918
1.000000 0.000000 0.732227
0.000000 0.114648 0.755420
0.088501 0.112251 0.751744
0.210092 0.109276 0.747485
0.361747 0.105710 0.742631
0.531699 0.101784 0.737413
0.701012 0.097872 0.732204
0.850995 0.094342 0.727373
0.970549 0.091412 0.723138
1.000000 0.089051 0.719467
0.000000 0.232737 0.740724
0.085288 0.230154 0.737025
0.208383 0.226987 0.732737
0.361242 0.223235 0.727859
0.531624 0.219137 0.722633
0.700430 0.215072 0.717435
0.849170 0.211403 0.712628
0.967249 0.208340 0.708423
1.000000 0.205836 0.704774
0.000000 0.376496 0.724203
0.080354 0.373769 0.720478
0.204949 0.370451 0.716159
0.358983 0.366553 0.711256
0.529749 0.362326 0.706020
0.698005 0.358150 0.700830
0.844164 0.354999 0.697360
0.959594 0.352724 0.695085
1.000000 0.350989 0.693351
0.000000 0.534268 0.706671
0.074507 0.531482 0.702913
0.200494 0.528147 0.698652
0.353279 0.525136 0.695641
0.521814 0.521814 0.692319
0.687551 0.518548 0.689053
0.833105 0.516461 0.684914
0.947285 0.516131 0.680132
1.000000 0.516616 0.676206
0.000000 0.690485 0.691987
0.065038 0.688614 0.690117
0.189506 0.686161 0.687664
0.345528 0.683672 0.682460
0.516586 0.681405 0.676929
0.682571 0.679658 0.671956
0.825828 0.678675 0.667789
0.937334 0.678495 0.664464
1.000000 0.679019 0.661884
0.000000 0.828767 0.679420
0.066942 0.826844 0.675396
0.196024 0.824715 0.671202
0.351922 0.822531 0.666992
0.520991 0.820581 0.663054
0.684138 0.819146 0.659668
0.824275 0.818382 0.656992
0.933064 0.818273 0.655008
1.000000 0.818730 0.653629
0.000000 0.935738 0.666224
0.080064 0.933803 0.663285
0.208922 0.931805 0.660318
0.363695 0.929894 0.657474
0.530569 0.928300 0.654981
0.690711 0.927207 0.653025
0.827600 0.926685 0.651674
0.933578 0.926671 0.650867
1.000000 0.927055 0.650493
0.000000 1.000000 0.657966
0.097559 1.000000 0.655977
0.225982 1.000000 0.654099
0.379405 1.000000 0.652474
0.543872 1.000000 0.651266
0.700827 1.000000 0.650567
0.834325 1.000000 0.650359
0.937376 0.999821 0.650538
0.999703 0.999703 0.650947
0.000000 0.022945 0.909054
0.089440 0.020704 0.905748
0.209677 0.017893 0.901866
0.360225 0.014485 0.897382
0.529753 0.010704 0.892519
0.699483 0.006919 0.887647
0.850560 0.003503 0.883139
0.971443 0.000682 0.879220
1.000000 0.000000 0.875872
0.000000 0.113501 0.897480
0.088071 0.111099 0.894146
0.209810 0.108120 0.890229
0.361584 0.104549 0.885715
0.531579 0.100621 0.880837
0.700839 0.096707 0.875969
0.850693 0.093178 0.871478
0.970095 0.090249 0.867583
1.000000 0.087888 0.864250
0.000000 0.231527 0.883943
0.084860 0.228940 0.880582
0.208104 0.225768 0.876631
0.361080 0.222011 0.872089
0.531500 0.217911 0.867198
0.700249 0.213845 0.862336
0.848858 0.210176 0.857866
0.966785 0.207114 0.853996
1.000000 0.204610 0.850679
0.000000 0.375237 0.868566
0.079928 0.372505 0.865174
0.204672 0.369182 0.861187
0.358820 0.365280 0.856614
0.529620 0.361051 0.851709
0.697755 0.356896 0.846892
0.843195 0.354030 0.844026
0.958625 0.351755 0.841751
1.000000 0.350020 0.840016
0.000000 0.532989 0.852159
0.074082 0.530199 0.848730
0.199525 0.527178 0.845317
0.352310 0.524167 0.842306
0.520845 0.520845 0.838984
0.686582 0.517579 0.835718
0.832271 0.516122 0.830226
0.946167 0.515914 0.824988
1.000000 0.516511 0.820591
0.000000 0.689516 0.838652
0.064069 0.687645 0.836782
0.189258 0.685273 0.833778
0.345970 0.682995 0.827622
0.516827 0.680873 0.821655
0.682524 0.679270 0.816241
0.825464 0.678423 0.811618
0.936692 0.678364 0.807815
1.000000 0.678998 0.804739
0.000000 0.827788 0.824461
0.067932 0.825973 0.819961
0.197006 0.823966 0.815300
0.352807 0.821920 0.810632
0.521669 0.820116 0.806238
0.684528 0.818827 0.802390
0.824350 0.818199 0.799235
0.932868 0.818211 0.796752
1.000000 0.818773 0.794853
0.000000 0.934834 0.809682
0.081461 0.933008 0.806248
0.210305 0.931136 0.802796
0.364974 0.929365 0.799474
0.531637 0.927918 0.796504
0.691489 0.926972 0.794065
0.828066 0.926586 0.792214
0.933779 0.926693 0.790885
1.000000 0.927180 0.789966
0.000000 1.000000 0.799725
0.099313 1.000000 0.797220
0.227716 1.000000 0.794835
0.381026 1.000000 0.792712
0.545276 1.000000 0.791007
0.701939 1.000000 0.789801
0.835127 1.000000 0.789070
0.937918 0.999799 0.788705
0.999783 0.999783 0.788543
0.000000 0.022054 1.000000
0.089209 0.019809 1.000000
0.209595 0.016993 1.000000
0.360264 0.013580 1.000000
0.529837 0.009796 1.000000
0.699519 0.006010 0.999870
0.850470 0.002594 0.995736
0.971199 0.000000 0.992194
1.000000 0.000000 0.989222
0.000000 0.112555 1.000000
0.087842 0.110148 1.000000
0.209729 0.107164 1.000000
0.361623 0.103589 0.998449
0.531658 0.099657 0.993944
0.700865 0.095743 0.989451
0.850591 0.092213 0.985338
0.969840 0.089286 0.981821
1.000000 0.086925 0.978866
0.000000 0.230517 0.996825
0.084634 0.227925 0.993835
0.208025 0.224748 0.990256
0.361118 0.220986 0.986086
0.531574 0.216884 0.981570
0.700266 0.212816 0.977085
0.848745 0.209149 0.972994
0.966519 0.206087 0.969504
1.000000 0.203584 0.966568
0.000000 0.374177 0.982711
0.079703 0.371441 0.979692
0.204595 0.368113 0.976078
0.358856 0.364206 0.971880
0.529688 0.359973 0.967351
0.696986 0.356127 0.963314
0.842426 0.353261 0.960448
0.957856 0.350986 0.958173
1.000000 0.349251 0.956438
0.000000 0.531910 0.967570
0.073856 0.529115 0.964516
0.198756 0.526409 0.961740
0.351541 0.523398 0.958729
0.520076 0.520076 0.955407
0.686017 0.517031 0.951619
0.831665 0.516011 0.945209
0.945262 0.515911 0.939747
1.000000 0.516606 0.935110
0.000000 0.688747 0.955075
0.063300 0.686876 0.953204
0.190028 0.684697 0.948905
0.346634 0.682540 0.942539
0.517276 0.680549 0.936368
0.682671 0.679077 0.930746
0.825280 0.678352 0.925899
0.936216 0.678400 0.921854
1.000000 0.679129 0.918518
0.000000 0.827027 0.939340
0.069126 0.825306 0.934596
0.198178 0.823408 0.929703
0.353866 0.821485 0.924810
0.522508 0.819813 0.920197
0.685064 0.818656 0.916123
0.824558 0.818149 0.912728
0.932791 0.818268 0.909986
1.000000 0.818923 0.907806
0.000000 0.934099 0.923764
0.083013 0.932371 0.920072
0.211830 0.930610 0.916371
0.366380 0.928965 0.912810
0.532819 0.927653 0.909605
0.692366 0.926839 0.906923
0.828619 0.926575 0.904814
0.934054 0.926790 0.903208
1.000000 0.927366 0.901987
0.001092 1.000000 0.912908
0.101176 1.000000 0.910127
0.229545 1.000000 0.907478
0.382728 1.000000 0.905099
0.546748 1.000000 0.903139
0.703104 1.000000 0.901672
0.835969 0.999900 0.900663
0.938487 0.999808 0.900000
0.999879 0.999879 0.899514
0.000000 0.021422 1.000000
0.089232 0.019168 1.000000
0.209761 0.016341 1.000000
0.360546 0.012918 1.000000
0.530159 0.009125 1.000000
0.699786 0.005333 1.000000
0.850606 0.001911 1.000000
0.971177 0.000000 1.000000
1.000000 0.000000 1.000000
0.000000 0.111849 1.000000
0.087849 0.109433 1.000000
0.209879 0.106438 1.000000
0.361886 0.102853 1.000000
0.531957 0.098913 1.000000
0.701104 0.094992 1.000000
0.850697 0.091458 1.000000
0.969787 0.088525 1.000000
1.000000 0.086159 1.000000
0.000000 0.229729 1.000000
0.084625 0.227128 1.000000
0.208159 0.223940 1.000000
0.361362 0.220169 1.000000
0.531850 0.216057 1.000000
0.700478 0.211984 1.000000
0.848820 0.208310 1.000000
0.966436 0.205244 1.000000
1.000000 0.202997 1.000000
0.000000 0.373322 1.000000
0.079677 0.370575 1.000000
0.204712 0.367236 1.000000
0.359081 0.363320 1.000000
0.529939 0.359078 1.000000
0.696399 0.355540 1.000000
0.841839 0.352673 1.000000
0.957269 0.350399 1.000000
1.000000 0.348939 1.000000
0.000000 0.531015 1.000000
0.073701 0.528275 1.000000
0.198169 0.525822 1.000000
0.350954 0.522811 1.000000
0.519489 0.519489 1.000000
0.685955 0.517009 1.000000
0.831256 0.516100 1.000000
0.944543 0.516095 1.000000
1.000000 0.516876 1.000000
0.000000 0.688160 1.000000
0.062713 0.686289 1.000000
0.191005 0.684329 1.000000
0.347493 0.682281 1.000000
0.517906 0.680408 1.000000
0.682987 0.679055 1.000000
0.825252 0.678439 1.000000
0.935885 0.678582 1.000000
1.000000 0.679393 1.000000
0.000000 0.826456 1.000000
0.070499 0.824817 1.000000
0.199515 0.823016 1.000000
0.355078 0.821204 1.000000
0.523487 0.819653 1.000000
0.685728 0.818614 1.000000
0.824881 0.818216 0.998891
0.932817 0.818430 0.995958
1.000000 0.819163 0.993569
0.000000 0.933515 1.000000
0.084703 0.931870 1.000000
0.213479 0.930209 1.000000
0.367897 0.928678 0.998841
0.534097 0.927486 0.995470
0.693328 0.926792 0.992618
0.829243 0.926638 0.990328
0.934388 0.926947 0.988523
1.000000 0.927599 0.987084
0.003059 1.000000 0.998808
0.103133 1.000000 0.995824
0.231453 1.000000 0.992984
0.384497 1.000000 0.990426
0.548272 1.000000 0.988294
0.704309 1.000000 0.986649
0.836838 0.999829 0.985450
0.939070 0.999833 0.984580
0.999978 0.999978 0.983862
