codequest/cutting-room/codequest-grade.cube
TITLE "Code Quest House Grade v1"
LUT_3D_SIZE 33
0.001582 0.029645 0.041643
0.022172 0.029128 0.040975
0.043958 0.028587 0.040285
0.067217 0.028017 0.039565
0.092175 0.027413 0.038812
0.119001 0.026773 0.038023
0.147805 0.026094 0.037195
0.178642 0.025375 0.036327
0.211507 0.024616 0.035419
0.246341 0.023818 0.034473
0.283031 0.022983 0.033490
0.321420 0.022116 0.032474
0.361302 0.021218 0.031428
0.402437 0.020296 0.030359
0.444554 0.019355 0.029270
0.487356 0.018401 0.028168
0.530530 0.017439 0.027058
0.573753 0.016476 0.025948
0.616703 0.015518 0.024844
0.659062 0.014572 0.023751
0.700528 0.013644 0.022676
0.740821 0.012739 0.021624
0.779689 0.011862 0.020601
0.816919 0.011018 0.019610
0.852335 0.010209 0.018655
0.885811 0.009438 0.017739
0.917272 0.008708 0.016862
0.946695 0.008017 0.016026
0.974118 0.007366 0.015230
0.999632 0.006752 0.014471
1.000000 0.006173 0.013747
1.000000 0.005625 0.013054
1.000000 0.005102 0.012386
0.001099 0.050114 0.039294
0.021739 0.049589 0.038627
0.043588 0.049039 0.037936
0.066922 0.048461 0.037216
0.091964 0.047848 0.036463
0.118881 0.047199 0.035673
0.147780 0.046511 0.034844
0.178712 0.045782 0.033975
0.211671 0.045014 0.033067
0.246594 0.044207 0.032120
0.283368 0.043364 0.031137
0.321831 0.042488 0.030120
0.361778 0.041582 0.029075
0.402966 0.040652 0.028005
0.445122 0.039703 0.026917
0.487949 0.038740 0.025815
0.531132 0.037771 0.024707
0.574351 0.036801 0.023598
0.617280 0.035837 0.022495
0.659605 0.034884 0.021404
0.701023 0.033950 0.020332
0.741255 0.033039 0.019282
0.780052 0.032156 0.018262
0.817201 0.031306 0.017274
0.852530 0.030492 0.016322
0.885914 0.029716 0.015408
0.917280 0.028980 0.014535
0.946610 0.028285 0.013702
0.973942 0.027628 0.012908
0.999371 0.027009 0.012152
1.000000 0.026425 0.011431
1.000000 0.025871 0.010740
1.000000 0.025342 0.010074
0.000523 0.071963 0.036851
0.021213 0.071428 0.036184
0.043126 0.070869 0.035494
0.066535 0.070280 0.034774
0.091662 0.069658 0.034020
0.118669 0.068998 0.033230
0.147663 0.068300 0.032400
0.178691 0.067561 0.031531
0.211744 0.066783 0.030622
0.246757 0.065966 0.029675
0.283614 0.065113 0.028691
0.322151 0.064226 0.027674
0.362162 0.063311 0.026629
0.403402 0.062371 0.025560
0.445596 0.061413 0.024472
0.488447 0.060442 0.023371
0.531641 0.059464 0.022264
0.574853 0.058486 0.021156
0.617762 0.057514 0.020055
0.660051 0.056554 0.018966
0.701421 0.055612 0.017896
0.741592 0.054694 0.016849
0.780318 0.053804 0.015831
0.817386 0.052947 0.014845
0.852627 0.052127 0.013896
0.885919 0.051344 0.012986
0.917191 0.050602 0.012116
0.946427 0.049900 0.011286
0.973668 0.049237 0.010495
0.999013 0.048611 0.009742
1.000000 0.048020 0.009023
1.000000 0.047459 0.008335
1.000000 0.046923 0.007672
0.000000 0.095373 0.034302
0.020581 0.094827 0.033636
0.042558 0.094257 0.032945
0.066044 0.093658 0.032225
0.091256 0.093024 0.031471
0.118354 0.092354 0.030680
0.147443 0.091644 0.029851
0.178566 0.090894 0.028981
0.211712 0.090105 0.028071
0.246815 0.089277 0.027123
0.283755 0.088412 0.026139
0.322367 0.087515 0.025123
0.362441 0.086589 0.024078
0.403732 0.085640 0.023008
0.445965 0.084671 0.021921
0.488839 0.083690 0.020821
0.532041 0.082703 0.019715
0.575247 0.081716 0.018609
0.618135 0.080735 0.017509
0.660389 0.079766 0.016423
0.701709 0.078816 0.015354
0.741819 0.077890 0.014310
0.780472 0.076993 0.013295
0.817460 0.076128 0.012312
0.852613 0.075300 0.011366
0.885813 0.074510 0.010459
0.916991 0.073760 0.009592
0.946133 0.073051 0.008765
0.973284 0.072380 0.007977
0.998544 0.071747 0.007227
1.000000 0.071148 0.006512
1.000000 0.070579 0.005826
1.000000 0.070035 0.005165
0.000000 0.120477 0.031638
0.019834 0.119920 0.030972
0.041876 0.119339 0.030282
0.065439 0.118728 0.029561
0.090736 0.118083 0.028807
0.117926 0.117401 0.028016
0.147109 0.116679 0.027185
0.178328 0.115918 0.026315
0.211568 0.115116 0.025405
0.246760 0.114276 0.024457
0.283783 0.113401 0.023473
0.322468 0.112492 0.022456
0.362605 0.111555 0.021411
0.403947 0.110594 0.020342
0.446217 0.109615 0.019255
0.489115 0.108624 0.018156
0.532325 0.107626 0.017051
0.575524 0.106629 0.015947
0.618390 0.105639 0.014849
0.660607 0.104661 0.013764
0.701877 0.103702 0.012698
0.741926 0.102767 0.011657
0.780507 0.101861 0.010644
0.817412 0.100989 0.009665
0.852478 0.100152 0.008722
0.885585 0.099354 0.007818
0.916669 0.098596 0.006954
0.945718 0.097879 0.006130
0.972779 0.097200 0.005346
0.997955 0.096559 0.004599
1.000000 0.095952 0.003886
1.000000 0.095374 0.003203
1.000000 0.094821 0.002544
0.000000 0.147360 0.028852
0.018965 0.146793 0.028187
0.041074 0.146200 0.027496
0.064714 0.145577 0.026776
0.090096 0.144920 0.026021
0.117378 0.144226 0.025230
0.146656 0.143492 0.024399
0.177971 0.142718 0.023528
0.211304 0.141904 0.022618
0.246585 0.141053 0.021669
0.283690 0.140165 0.020685
0.322449 0.139245 0.019668
0.362648 0.138296 0.018623
0.404041 0.137324 0.017555
0.446347 0.136334 0.016468
0.489267 0.135332 0.015370
0.532485 0.134324 0.014267
0.575676 0.133317 0.013164
0.618519 0.132316 0.012068
0.660700 0.131329 0.010985
0.701920 0.130361 0.009922
0.741906 0.129417 0.008883
0.780414 0.128502 0.007873
0.817238 0.127621 0.006896
0.852215 0.126776 0.005957
0.885230 0.125969 0.005056
0.916220 0.125203 0.004195
0.945175 0.124477 0.003374
0.972146 0.123790 0.002593
0.997239 0.123140 0.001849
1.000000 0.122524 0.001139
1.000000 0.121937 0.000458
1.000000 0.121375 0.000000
0.000000 0.176061 0.025942
0.017974 0.175482 0.025277
0.040149 0.174877 0.024587
0.063866 0.174243 0.023866
0.089335 0.173573 0.023112
0.116708 0.172867 0.022319
0.146082 0.172121 0.021488
0.177492 0.171335 0.020617
0.210919 0.170509 0.019706
0.246288 0.169645 0.018757
0.283475 0.168745 0.017772
0.322306 0.167813 0.016756
0.362568 0.166853 0.015711
0.404010 0.165869 0.014643
0.446353 0.164868 0.013557
0.489295 0.163855 0.012460
0.532519 0.162837 0.011358
0.575702 0.161819 0.010256
0.618522 0.160809 0.009162
0.660664 0.159812 0.008082
0.701834 0.158834 0.007021
0.741757 0.157881 0.005984
0.780191 0.156958 0.004977
0.816934 0.156067 0.004004
0.851822 0.155214 0.003067
0.884745 0.154399 0.002170
0.915640 0.153624 0.001312
0.944502 0.152889 0.000495
0.971384 0.152194 0.000000
0.996393 0.151535 0.000000
1.000000 0.150910 0.000000
1.000000 0.150314 0.000000
1.000000 0.149742 0.000000
0.000000 0.206568 0.022909
0.016859 0.205977 0.022244
0.039101 0.205361 0.021554
0.062896 0.204715 0.020833
0.088452 0.204034 0.020078
0.115917 0.203315 0.019286
0.145386 0.202557 0.018454
0.176891 0.201759 0.017582
0.210411 0.200921 0.016671
0.245869 0.200045 0.015721
0.283138 0.199133 0.014737
0.322041 0.198189 0.013720
0.362365 0.197218 0.012675
0.403856 0.196223 0.011608
0.446234 0.195211 0.010523
0.489196 0.194187 0.009427
0.532426 0.193159 0.008326
0.575600 0.192131 0.007226
0.618396 0.191111 0.006133
0.660501 0.190105 0.005055
0.701619 0.189118 0.003996
0.741478 0.188156 0.002962
0.779839 0.187223 0.001958
0.816499 0.186324 0.000988
0.851299 0.185462 0.000054
0.884129 0.184639 0.000000
0.914930 0.183856 0.000000
0.943699 0.183112 0.000000
0.970491 0.182408 0.000000
0.995418 0.181741 0.000000
1.000000 0.181107 0.000000
1.000000 0.180502 0.000000
1.000000 0.179921 0.000000
0.000000 0.238824 0.019756
0.015625 0.238222 0.019092
0.037935 0.237595 0.018401
0.061809 0.236938 0.017681
0.087451 0.236245 0.016925
0.115009 0.235515 0.016132
0.144573 0.234745 0.015300
0.176173 0.233935 0.014427
0.209786 0.233086 0.013516
0.245333 0.232198 0.012566
0.282682 0.231275 0.011581
0.321657 0.230320 0.010564
0.362042 0.229338 0.009519
0.403581 0.228332 0.008452
0.445994 0.227310 0.007368
0.488977 0.226276 0.006273
0.532212 0.225237 0.005173
0.575376 0.224200 0.004075
0.618147 0.223171 0.002984
0.660213 0.222155 0.001908
0.701279 0.221159 0.000852
0.741074 0.220189 0.000000
0.779361 0.219248 0.000000
0.815938 0.218341 0.000000
0.850649 0.217471 0.000000
0.883386 0.216639 0.000000
0.914093 0.215848 0.000000
0.942769 0.215097 0.000000
0.969472 0.214385 0.000000
0.994317 0.213709 0.000000
1.000000 0.213067 0.000000
1.000000 0.212454 0.000000
1.000000 0.211863 0.000000
0.000000 0.272730 0.016491
0.014280 0.272118 0.015827
0.036658 0.271481 0.015136
0.060610 0.270812 0.014415
0.086339 0.270109 0.013659
0.113990 0.269368 0.012866
0.143649 0.268587 0.012033
0.175345 0.267766 0.011160
0.209051 0.266906 0.010248
0.244685 0.266007 0.009297
0.282114 0.265074 0.008312
0.321161 0.264108 0.007295
0.361606 0.263115 0.006251
0.403193 0.262100 0.005184
0.445640 0.261067 0.004100
0.488642 0.260024 0.003006
0.531882 0.258976 0.001907
0.575036 0.257930 0.000810
0.617781 0.256892 0.000000
0.659808 0.255868 0.000000
0.700821 0.254865 0.000000
0.740552 0.253886 0.000000
0.778763 0.252938 0.000000
0.815257 0.252023 0.000000
0.849879 0.251145 0.000000
0.882523 0.250307 0.000000
0.913135 0.249508 0.000000
0.941719 0.248750 0.000000
0.968333 0.248030 0.000000
0.993095 0.247347 0.000000
1.000000 0.246697 0.000000
1.000000 0.246075 0.000000
1.000000 0.245477 0.000000
0.000000 0.308145 0.013123
0.012832 0.307524 0.012459
0.035278 0.306877 0.011768
0.059310 0.306199 0.011047
0.085126 0.305486 0.010290
0.112870 0.304735 0.009496
0.142624 0.303944 0.008663
0.174415 0.303113 0.007789
0.208213 0.302243 0.006876
0.243935 0.301334 0.005925
0.281445 0.300391 0.004940
0.320562 0.299416 0.003923
0.361067 0.298413 0.002878
0.402701 0.297389 0.001812
0.445181 0.296348 0.000729
0.488202 0.295296 0.000000
0.531446 0.294239 0.000000
0.574588 0.293185 0.000000
0.617308 0.292140 0.000000
0.659294 0.291108 0.000000
0.700254 0.290097 0.000000
0.739919 0.289112 0.000000
0.778056 0.288156 0.000000
0.814466 0.287235 0.000000
0.848998 0.286351 0.000000
0.881549 0.285506 0.000000
0.912067 0.284701 0.000000
0.940557 0.283936 0.000000
0.967083 0.283210 0.000000
0.991764 0.282520 0.000000
1.000000 0.281863 0.000000
1.000000 0.281234 0.000000
1.000000 0.280628 0.000000
0.000000 0.344894 0.009664
0.011294 0.344265 0.009000
0.033810 0.343610 0.008309
0.057921 0.342923 0.007587
0.083825 0.342201 0.006831
0.111661 0.341441 0.006036
0.141510 0.340641 0.005201
0.173396 0.339801 0.004327
0.207287 0.338922 0.003413
0.243096 0.338005 0.002462
0.280685 0.337052 0.001476
0.319873 0.336069 0.000459
0.360436 0.335058 0.000000
0.402117 0.334026 0.000000
0.444630 0.332976 0.000000
0.487669 0.331917 0.000000
0.530915 0.330854 0.000000
0.574046 0.329793 0.000000
0.616738 0.328740 0.000000
0.658684 0.327702 0.000000
0.699589 0.326685 0.000000
0.739189 0.325694 0.000000
0.777250 0.324733 0.000000
0.813576 0.323806 0.000000
0.848019 0.322916 0.000000
0.880476 0.322066 0.000000
0.910899 0.321256 0.000000
0.939297 0.320485 0.000000
0.965734 0.319754 0.000000
0.990333 0.319058 0.000000
1.000000 0.318395 0.000000
1.000000 0.317761 0.000000
1.000000 0.317275 0.000000
0.000000 0.382769 0.006129
0.009681 0.382133 0.005465
0.032266 0.381470 0.004774
0.056457 0.380776 0.004052
0.082449 0.380047 0.003294
0.110377 0.379279 0.002498
0.140322 0.378471 0.001663
0.172303 0.377624 0.000788
0.206286 0.376737 0.000000
0.242181 0.375812 0.000000
0.279850 0.374853 0.000000
0.319107 0.373862 0.000000
0.359729 0.372844 0.000000
0.401455 0.371805 0.000000
0.444000 0.370749 0.000000
0.487056 0.369683 0.000000
0.530305 0.368614 0.000000
0.573422 0.367547 0.000000
0.616087 0.366489 0.000000
0.657991 0.365447 0.000000
0.698842 0.364425 0.000000
0.738375 0.363429 0.000000
0.776360 0.362463 0.000000
0.812602 0.361532 0.000000
0.846954 0.360638 0.000000
0.879318 0.359784 0.000000
0.909647 0.358969 0.000000
0.937952 0.358195 0.000000
0.964300 0.357459 0.000000
0.988491 0.356972 0.000000
1.000000 0.356527 0.000000
1.000000 0.356109 0.000000
1.000000 0.355713 0.000000
0.000000 0.421536 0.002534
0.008009 0.420895 0.001870
0.030664 0.420226 0.001179
0.054935 0.419526 0.000456
0.081015 0.418790 0.000000
0.109036 0.418016 0.000000
0.139076 0.417203 0.000000
0.171151 0.416349 0.000000
0.205226 0.415455 0.000000
0.241207 0.414525 0.000000
0.278955 0.413559 0.000000
0.318282 0.412562 0.000000
0.358961 0.411539 0.000000
0.400732 0.410494 0.000000
0.443308 0.409433 0.000000
0.486380 0.408363 0.000000
0.529631 0.407289 0.000000
0.572734 0.406218 0.000000
0.615371 0.405156 0.000000
0.657232 0.404110 0.000000
0.698028 0.403084 0.000000
0.737494 0.402085 0.000000
0.775402 0.401116 0.000000
0.811559 0.400182 0.000000
0.845821 0.399286 0.000000
0.877949 0.398501 0.000000
0.907771 0.397914 0.000000
0.935625 0.397365 0.000000
0.961578 0.396853 0.000000
0.985751 0.396377 0.000000
1.000000 0.395932 0.000000
1.000000 0.395514 0.000000
1.000000 0.395118 0.000000
0.000000 0.460941 0.000000
0.006295 0.460295 0.000000
0.029020 0.459623 0.000000
0.053372 0.458918 0.000000
0.079540 0.458178 0.000000
0.107654 0.457399 0.000000
0.137789 0.456580 0.000000
0.169959 0.455722 0.000000
0.204125 0.454824 0.000000
0.240192 0.453888 0.000000
0.278018 0.452918 0.000000
0.317413 0.451917 0.000000
0.358149 0.450890 0.000000
0.399965 0.449841 0.000000
0.442571 0.448777 0.000000
0.485659 0.447703 0.000000
0.528910 0.446626 0.000000
0.571999 0.445552 0.000000
0.614607 0.444488 0.000000
0.656425 0.443439 0.000000
0.697164 0.442412 0.000000
0.736563 0.441411 0.000000
0.774034 0.440600 0.000000
0.809620 0.439899 0.000000
0.843359 0.439234 0.000000
0.875160 0.438607 0.000000
0.904982 0.438020 0.000000
0.932836 0.437471 0.000000
0.958789 0.436959 0.000000
0.982962 0.436483 0.000000
1.000000 0.436038 0.000000
1.000000 0.435620 0.000000
1.000000 0.435224 0.000000
0.000000 0.500714 0.000000
0.004558 0.500066 0.000000
0.027355 0.499391 0.000000
0.051787 0.498683 0.000000
0.078043 0.497940 0.000000
0.106250 0.497158 0.000000
0.136480 0.496336 0.000000
0.168744 0.495474 0.000000
0.203001 0.494573 0.000000
0.239154 0.493634 0.000000
0.277058 0.492661 0.000000
0.316521 0.491657 0.000000
0.357313 0.490627 0.000000
0.399172 0.489576 0.000000
0.441808 0.488510 0.000000
0.484911 0.487435 0.000000
0.528162 0.486356 0.000000
0.571235 0.485281 0.000000
0.613787 0.484227 0.000000
0.654973 0.483415 0.000000
0.695101 0.482624 0.000000
0.733922 0.481859 0.000000
0.771216 0.481124 0.000000
0.806802 0.480423 0.000000
0.840541 0.479758 0.000000
0.872342 0.479131 0.000000
0.902164 0.478543 0.000000
0.930018 0.477994 0.000000
0.955971 0.477483 0.000000
0.980144 0.477006 0.000000
1.000000 0.476562 0.000000
1.000000 0.476144 0.000000
1.000000 0.475748 0.000000
0.000000 0.540578 0.000000
0.002818 0.539930 0.000000
0.025686 0.539253 0.000000
0.050200 0.538544 0.000000
0.076544 0.537799 0.000000
0.104844 0.537016 0.000000
0.135168 0.536192 0.000000
0.167527 0.535329 0.000000
0.201875 0.534426 0.000000
0.238113 0.533486 0.000000
0.276093 0.532511 0.000000
0.315624 0.531507 0.000000
0.356472 0.530476 0.000000
0.398374 0.529424 0.000000
0.441038 0.528357 0.000000
0.483904 0.527379 0.000000
0.526538 0.526538 0.000000
0.568993 0.525702 0.000000
0.610960 0.524875 0.000000
0.652146 0.524063 0.000000
0.692275 0.523272 0.000000
0.731095 0.522507 0.000000
0.768389 0.521772 0.000000
0.803975 0.521071 0.000000
0.837714 0.520406 0.000000
0.869515 0.519779 0.000000
0.899337 0.519191 0.000000
0.927191 0.518642 0.000000
0.953144 0.518131 0.000000
0.977304 0.517670 0.000000
0.999487 0.517626 0.000000
1.000000 0.517624 0.000000
1.000000 0.517672 0.000000
0.000000 0.580254 0.000000
0.001094 0.579606 0.000000
0.024033 0.578930 0.000000
0.048629 0.578221 0.000000
0.075062 0.577476 0.000000
0.103455 0.576693 0.000000
0.133874 0.575869 0.000000
0.166327 0.575006 0.000000
0.200765 0.574103 0.000000
0.237087 0.573163 0.000000
0.275145 0.572189 0.000000
0.314741 0.571184 0.000000
0.355189 0.570336 0.000000
0.396519 0.569522 0.000000
0.438585 0.568692 0.000000
0.481089 0.567855 0.000000
0.523724 0.567015 0.000000
0.566178 0.566178 0.000000
0.608145 0.565351 0.000000
0.649331 0.564539 0.000000
0.689460 0.563748 0.000000
0.728281 0.562983 0.000000
0.765574 0.562248 0.000000
0.801160 0.561547 0.000000
0.834899 0.560882 0.000000
0.866701 0.560255 0.000000
0.896480 0.559805 0.000000
0.924139 0.559612 0.000000
0.949780 0.559475 0.000000
0.973537 0.559389 0.000000
0.995602 0.559349 0.000000
1.000000 0.559350 0.000000
1.000000 0.559416 0.000000
0.000000 0.619465 0.000000
0.000000 0.618820 0.000000
0.022417 0.618146 0.000000
0.047094 0.617439 0.000000
0.073615 0.616695 0.000000
0.102102 0.615913 0.000000
0.132615 0.615091 0.000000
0.165162 0.614229 0.000000
0.199621 0.613359 0.000000
0.235491 0.612652 0.000000
0.273044 0.611912 0.000000
0.312090 0.611143 0.000000
0.352406 0.610348 0.000000
0.393737 0.609534 0.000000
0.435803 0.608705 0.000000
0.478307 0.607867 0.000000
0.520941 0.607027 0.000000
0.563395 0.606190 0.000000
0.605363 0.605363 0.000000
0.646549 0.604551 0.000000
0.686678 0.603760 0.000000
0.725498 0.602995 0.000000
0.762792 0.602260 0.000000
0.798491 0.601776 0.000000
0.832253 0.601416 0.000000
0.863941 0.601116 0.000000
0.893521 0.600875 0.000000
0.921017 0.600691 0.000000
0.946507 0.600561 0.000000
0.970128 0.600480 0.000000
0.992074 0.600443 0.000000
1.000000 0.600445 0.000000
1.000000 0.600523 0.000000
0.000000 0.657948 0.000000
0.000000 0.657306 0.000000
0.020854 0.656635 0.000000
0.045613 0.655932 0.000000
0.072224 0.655191 0.000000
0.100590 0.654524 0.000000
0.130730 0.653930 0.000000
0.162847 0.653298 0.000000
0.196890 0.652627 0.000000
0.232761 0.651920 0.000000
0.270313 0.651180 0.000000
0.309359 0.650410 0.000000
0.349676 0.649615 0.000000
0.391006 0.648801 0.000000
0.433072 0.647972 0.000000
0.475576 0.647134 0.000000
0.518211 0.646294 0.000000
0.560665 0.645457 0.000000
0.602632 0.644630 0.000000
0.643881 0.643845 0.000000
0.684407 0.643274 0.000000
0.723484 0.642755 0.000000
0.760891 0.642293 0.000000
0.796449 0.641888 0.000000
0.830021 0.641543 0.000000
0.861526 0.641255 0.000000
0.890931 0.641025 0.000000
0.918262 0.640848 0.000000
0.943601 0.640723 0.000000
0.967087 0.640646 0.000000
0.988915 0.640610 0.000000
1.000000 0.640610 0.000000
1.000000 0.640696 0.000000
0.000000 0.695454 0.000000
0.000000 0.694817 0.000000
0.019062 0.694338 0.000000
0.043511 0.693856 0.000000
0.069762 0.693339 0.000000
0.097929 0.692783 0.000000
0.128070 0.692189 0.000000
0.160186 0.691556 0.000000
0.194230 0.690886 0.000000
0.230100 0.690179 0.000000
0.267653 0.689439 0.000000
0.306699 0.688669 0.000000
0.347015 0.687874 0.000000
0.388346 0.687060 0.000000
0.430412 0.686231 0.000000
0.472916 0.685393 0.000000
0.515902 0.684618 0.000000
0.558977 0.683936 0.000000
0.601436 0.683292 0.000000
0.642977 0.682693 0.000000
0.683317 0.682141 0.000000
0.722204 0.681642 0.000000
0.759418 0.681197 0.000000
0.794782 0.680808 0.000000
0.828165 0.680476 0.000000
0.859485 0.680199 0.000000
0.888715 0.679977 0.000000
0.915881 0.679807 0.000000
0.941069 0.679686 0.000000
0.964420 0.679609 0.000000
0.986129 0.679573 0.000000
1.000000 0.679571 0.000000
1.000000 0.679661 0.000000
0.000000 0.732221 0.000000
0.000000 0.731799 0.000000
0.016489 0.731350 0.000000
0.040937 0.730868 0.000000
0.067188 0.730350 0.000000
0.095356 0.729795 0.000000
0.125496 0.729201 0.000000
0.157613 0.728568 0.000000
0.191656 0.727897 0.000000
0.227527 0.727190 0.000000
0.265079 0.726450 0.000000
0.304125 0.725681 0.000000
0.344441 0.724886 0.000000
0.386552 0.724123 0.000000
0.429438 0.723381 0.000000
0.472656 0.722660 0.000000
0.515885 0.721966 0.000000
0.558803 0.721305 0.000000
0.601093 0.720682 0.000000
0.642455 0.720103 0.000000
0.682609 0.719571 0.000000
0.721303 0.719090 0.000000
0.758323 0.718661 0.000000
0.793493 0.718286 0.000000
0.826684 0.717966 0.000000
0.857820 0.717699 0.000000
0.886873 0.717484 0.000000
0.913874 0.717319 0.000000
0.938911 0.717200 0.000000
0.962125 0.717124 0.000000
0.983715 0.717085 0.000000
1.000000 0.717079 0.000000
1.000000 0.717171 0.000000
0.000000 0.767777 0.000000
0.000000 0.767355 0.000000
0.014016 0.766906 0.000000
0.038464 0.766424 0.000000
0.064716 0.765907 0.000000
0.092883 0.765351 0.000000
0.123024 0.764757 0.000000
0.155140 0.764125 0.000000
0.189183 0.763454 0.000000
0.225297 0.762742 0.000000
0.263901 0.761995 0.000000
0.303935 0.761245 0.000000
0.345161 0.760498 0.000000
0.387308 0.759760 0.000000
0.430081 0.759037 0.000000
0.473170 0.758336 0.000000
0.516254 0.757663 0.000000
0.559012 0.757023 0.000000
0.601132 0.756421 0.000000
0.642312 0.755861 0.000000
0.682277 0.755348 0.000000
0.720778 0.754884 0.000000
0.757601 0.754470 0.000000
0.792576 0.754109 0.000000
0.825575 0.753799 0.000000
0.856524 0.753541 0.000000
0.885400 0.753333 0.000000
0.912236 0.753171 0.000000
0.937119 0.753054 0.000000
0.960197 0.752977 0.000000
0.981667 0.752935 0.000000
1.000000 0.752925 0.000000
1.000000 0.753016 0.000000
0.000000 0.801705 0.000000
0.000000 0.801283 0.000000
0.011657 0.800834 0.000000
0.036105 0.800352 0.000000
0.062356 0.799834 0.000000
0.090524 0.799279 0.000000
0.121357 0.798635 0.000000
0.154629 0.797934 0.000000
0.189790 0.797218 0.000000
0.226729 0.796490 0.000000
0.265286 0.795756 0.000000
0.305256 0.795021 0.000000
0.346401 0.794291 0.000000
0.388450 0.793571 0.000000
0.431107 0.792868 0.000000
0.474063 0.792187 0.000000
0.517000 0.791534 0.000000
0.559597 0.790914 0.000000
0.601542 0.790332 0.000000
0.642540 0.789792 0.000000
0.682313 0.789297 0.000000
0.720618 0.788849 0.000000
0.757244 0.788451 0.000000
0.792021 0.788102 0.000000
0.824827 0.787803 0.000000
0.855588 0.787553 0.000000
0.884285 0.787351 0.000000
0.910954 0.787193 0.000000
0.935684 0.787076 0.000000
0.958623 0.786998 0.000000
0.979973 0.786953 0.000000
0.999988 0.786938 0.000000
1.000000 0.787025 0.000000
0.000000 0.833872 0.000000
0.000000 0.833450 0.000000
0.009420 0.833001 0.000000
0.035053 0.832384 0.000000
0.062534 0.831741 0.000000
0.091912 0.831080 0.000000
0.123237 0.830400 0.000000
0.156501 0.829705 0.000000
0.191643 0.828998 0.000000
0.228547 0.828281 0.000000
0.267054 0.827561 0.000000
0.306958 0.826841 0.000000
0.348018 0.826128 0.000000
0.389965 0.825426 0.000000
0.432503 0.824743 0.000000
0.475324 0.824082 0.000000
0.518109 0.823450 0.000000
0.560542 0.822850 0.000000
0.602311 0.822288 0.000000
0.643122 0.821767 0.000000
0.682703 0.821290 0.000000
0.720810 0.820859 0.000000
0.757235 0.820476 0.000000
0.791813 0.820140 0.000000
0.824423 0.819852 0.000000
0.854996 0.819610 0.000000
0.883513 0.819413 0.000000
0.910012 0.819258 0.000000
0.934588 0.819143 0.000000
0.957388 0.819063 0.000000
0.978616 0.819015 0.000000
0.998527 0.818995 0.000000
1.000000 0.819076 0.000000
0.000000 0.863937 0.000000
0.000000 0.863339 0.000000
0.011586 0.862727 0.000000
0.037293 0.862101 0.000000
0.064786 0.861458 0.000000
0.094171 0.860799 0.000000
0.125495 0.860124 0.000000
0.158749 0.859436 0.000000
0.193867 0.858738 0.000000
0.230734 0.858033 0.000000
0.269187 0.857326 0.000000
0.309021 0.856622 0.000000
0.349993 0.855927 0.000000
0.391834 0.855244 0.000000
0.434250 0.854581 0.000000
0.476932 0.853941 0.000000
0.519564 0.853330 0.000000
0.561829 0.852751 0.000000
0.603419 0.852210 0.000000
0.644041 0.851709 0.000000
0.683426 0.851250 0.000000
0.721333 0.850836 0.000000
0.757556 0.850468 0.000000
0.791933 0.850145 0.000000
0.824346 0.849868 0.000000
0.854727 0.849634 0.000000
0.883063 0.849444 0.000000
0.909392 0.849293 0.000000
0.933811 0.849179 0.000000
0.956471 0.849098 0.000000
0.977576 0.849048 0.000000
0.997382 0.849023 0.000000
1.000000 0.849095 0.000000
0.000000 0.891588 0.000000
0.000000 0.890984 0.000000
0.014182 0.890370 0.000000
0.039899 0.889742 0.000000
0.067401 0.889100 0.000000
0.096791 0.888444 0.000000
0.128111 0.887775 0.000000
0.161351 0.887095 0.000000
0.196442 0.886407 0.000000
0.233268 0.885716 0.000000
0.271664 0.885024 0.000000
0.311423 0.884337 0.000000
0.352304 0.883660 0.000000
0.394037 0.882998 0.000000
0.436327 0.882355 0.000000
0.478867 0.881737 0.000000
0.521341 0.881148 0.000000
0.563436 0.880592 0.000000
0.604844 0.880072 0.000000
0.645275 0.879591 0.000000
0.684461 0.879152 0.000000
0.722165 0.878756 0.000000
0.758184 0.878403 0.000000
0.792357 0.878095 0.000000
0.824571 0.877829 0.000000
0.854760 0.877605 0.000000
0.882912 0.877421 0.000000
0.909070 0.877274 0.000000
0.933331 0.877163 0.000000
