codequest/cutting-room/codequest-grade.cube
TITLE "Code Quest House Grade v1"
LUT_3D_SIZE 5
0.001582 0.029645 0.041643
0.211507 0.024616 0.035419
0.530530 0.017439 0.027058
0.852335 0.010209 0.018655
1.000000 0.005102 0.012386
0.000000 0.238824 0.019756
0.209786 0.233086 0.013516
0.532212 0.225237 0.005173
0.850649 0.217471 0.000000
1.000000 0.211863 0.000000
0.000000 0.540578 0.000000
0.201875 0.534426 0.000000
0.526538 0.526538 0.000000
0.837714 0.520406 0.000000
1.000000 0.517672 0.000000
0.000000 0.833872 0.000000
0.191643 0.828998 0.000000
0.518109 0.823450 0.000000
0.824423 0.819852 0.000000
1.000000 0.819076 0.000000
0.000000 1.000000 0.000000
0.217869 1.000000 0.000000
0.537421 1.000000 0.000000
0.830933 1.000000 0.000000
1.000000 1.000000 0.009294
0.000815 0.027778 0.275344
0.211268 0.022748 0.267681
0.530652 0.015574 0.257888
0.852134 0.008361 0.248070
1.000000 0.003275 0.240393
0.000000 0.236782 0.248679
0.209621 0.231044 0.241011
0.532379 0.223199 0.231251
0.850467 0.215451 0.221599
1.000000 0.209864 0.214123
0.000000 0.538463 0.215755
0.201774 0.532309 0.208062
0.525066 0.525066 0.200080
0.836242 0.518934 0.193947
1.000000 0.517493 0.190975
0.000000 0.832308 0.190219
0.193619 0.827507 0.187971
0.519434 0.822469 0.185659
0.824479 0.819374 0.185463
1.000000 0.818991 0.188149
0.000000 1.000000 0.188978
0.221150 1.000000 0.191153
0.539981 1.000000 0.194231
0.832208 1.000000 0.199279
0.999741 0.999741 0.206022
0.000000 0.025281 0.604304
0.210397 0.020246 0.596048
0.530133 0.013070 0.585645
0.851285 0.005869 0.575211
1.000000 0.000798 0.566901
0.000000 0.234093 0.575613
0.208805 0.228350 0.567285
0.531889 0.220505 0.556848
0.849619 0.212768 0.546513
1.000000 0.207198 0.538338
0.000000 0.535683 0.540431
0.201008 0.529523 0.532011
0.522919 0.522919 0.525080
0.834116 0.516979 0.518715
1.000000 0.516878 0.511551
0.000000 0.829917 0.513718
0.195191 0.825614 0.507058
0.520441 0.821177 0.500435
0.824310 0.818678 0.495921
1.000000 0.818780 0.494181
0.000000 1.000000 0.497599
0.224334 1.000000 0.495355
0.542534 1.000000 0.494115
0.833573 1.000000 0.494828
0.999661 0.999661 0.497116
0.000000 0.022945 0.909054
0.209677 0.017893 0.901866
0.529753 0.010704 0.892519
0.850560 0.003503 0.883139
1.000000 0.000000 0.875872
0.000000 0.231527 0.883943
0.208104 0.225768 0.876631
0.531500 0.217911 0.867198
0.848858 0.210176 0.857866
1.000000 0.204610 0.850679
0.000000 0.532989 0.852159
0.199525 0.527178 0.845317
0.520845 0.520845 0.838984
0.832271 0.516122 0.830226
1.000000 0.516511 0.820591
0.000000 0.827788 0.824461
0.197006 0.823966 0.815300
0.521669 0.820116 0.806238
0.824350 0.818199 0.799235
1.000000 0.818773 0.794853
0.000000 1.000000 0.799725
0.227716 1.000000 0.794835
0.545276 1.000000 0.791007
0.835127 1.000000 0.789070
0.999783 0.999783 0.788543
0.000000 0.021422 1.000000
0.209761 0.016341 1.000000
0.530159 0.009125 1.000000
0.850606 0.001911 1.000000
1.000000 0.000000 1.000000
0.000000 0.229729 1.000000
0.208159 0.223940 1.000000
0.531850 0.216057 1.000000
0.848820 0.208310 1.000000
1.000000 0.202997 1.000000
0.000000 0.531015 1.000000
0.198169 0.525822 1.000000
0.519489 0.519489 1.000000
0.831256 0.516100 1.000000
1.000000 0.516876 1.000000
0.000000 0.826456 1.000000
0.199515 0.823016 1.000000
0.523487 0.819653 1.000000
0.824881 0.818216 0.998891
1.000000 0.819163 0.993569
0.003059 1.000000 0.998808
0.231453 1.000000 0.992984
0.548272 1.000000 0.988294
0.836838 0.999829 0.985450
0.999978 0.999978 0.983862
